images/company11.svg

<svg width="34" height="40" viewBox="0 0 34 40" fill="none" xmlns="http://www.w3.org/2000/svg">
<g id="Frame" clip-path="url(#clip0_282_1433)">
<path id="Vector" d="M27.7735 38.4C25.6135 40.5067 23.2669 40.1733 21.0002 39.1733C19.8843 38.6572 18.6696 38.3899 17.4402 38.3899C16.2108 38.3899 14.996 38.6572 13.8802 39.1733C10.7202 40.5467 9.05353 40.1467 7.16019 38.4C-3.57314 27.2 -1.99981 10.2 10.1869 9.57333C13.1602 9.73333 15.2269 11.2267 16.9602 11.36C19.5602 10.8267 22.0269 9.29333 24.8002 9.49333C28.1335 9.76 30.6269 11.0933 32.2669 13.4933C30.8298 14.3158 29.6531 15.526 28.8711 16.9855C28.0891 18.445 27.7334 20.095 27.8447 21.747C27.9559 23.3991 28.5296 24.9865 29.5002 26.328C30.4708 27.6695 31.7992 28.7109 33.3335 29.3333C32.0802 32.6667 30.4535 35.9733 27.7469 38.4133L27.7735 38.4ZM16.7469 9.44C16.6408 7.1126 17.4348 4.8337 18.964 3.07604C20.4933 1.31837 22.6405 0.216862 24.9602 0C25.6002 5.73333 19.8135 10 16.7469 9.44Z" fill="white"/>
</g>
<defs>
<clipPath id="clip0_282_1433">
<rect width="33.3333" height="40" fill="white"/>
</clipPath>
</defs>
</svg>

<svg width="34" height="40" fill="none" xmlns="http://www.w3.org/2000/svg"><g clip-path="url(#a)"><path d="M27.773 38.4c-2.16 2.107-4.506 1.773-6.773.773a8.48 8.48 0 0 0-7.12 0c-3.16 1.374-4.826.974-6.72-.773C-3.573 27.2-2 10.2 10.187 9.573c2.973.16 5.04 1.654 6.773 1.787 2.6-.533 5.067-2.067 7.84-1.867 3.334.267 5.827 1.6 7.467 4a8.827 8.827 0 0 0 1.066 15.84c-1.253 3.334-2.88 6.64-5.586 9.08l.026-.013ZM16.747 9.44A9.067 9.067 0 0 1 24.96 0c.64 5.733-5.146 10-8.213 9.44Z" fill="#fff"/></g><defs><clipPath id="a"><path fill="#fff" d="M0 0h33.333v40H0z"/></clipPath></defs></svg>
